src/assets/img/providers-white/onextwogaming.svg

<svg width="74" height="30" viewBox="0 0 74 30" fill="none" xmlns="http://www.w3.org/2000/svg">
<g clip-path="url(#clip0_4659_8179)">
<path fill-rule="evenodd" clip-rule="evenodd" d="M19.56 8.23671L18.6011 8.24934C18.5767 8.24971 18.5529 8.25604 18.5316 8.26779C18.5103 8.27954 18.4922 8.29633 18.4789 8.31671L15.6084 12.6178C15.6028 12.626 15.5953 12.6328 15.5865 12.6374C15.5777 12.6421 15.5679 12.6445 15.5579 12.6445C15.5479 12.6445 15.5381 12.6421 15.5293 12.6374C15.5205 12.6328 15.513 12.626 15.5074 12.6178L12.6358 8.31144C12.6225 8.29174 12.6045 8.27565 12.5834 8.26463C12.5622 8.2536 12.5386 8.24799 12.5147 8.24829C11.7821 8.25039 11.0175 8.24934 10.2211 8.24513C10.1832 8.24443 10.153 8.26267 10.1305 8.29986C10.1224 8.31299 10.1183 8.32817 10.1186 8.34351C10.119 8.35886 10.1239 8.37369 10.1326 8.38618L14.0758 14.0778C14.0915 14.1007 14.1 14.1279 14.1 14.1555C14.1 14.1832 14.0915 14.21 14.0758 14.2325L9.99263 20.1262C9.98701 20.1343 9.98374 20.1438 9.98318 20.1537C9.98263 20.1636 9.98482 20.1734 9.9895 20.1821C9.99418 20.1908 10.0012 20.1981 10.0097 20.2031C10.0183 20.2081 10.028 20.2106 10.0379 20.2104L11.3411 20.2009L6.67158 26.9967C6.64421 27.0374 6.61088 27.043 6.57158 27.0135C2.18632 23.7241 -0.0473679 18.3672 0.697895 12.9483C1.78947 5.01355 8.90105 -0.643291 16.8758 0.111446C19.2611 0.337411 21.4761 1.10724 23.521 2.42092C23.5237 2.42257 23.526 2.42476 23.5278 2.42737C23.5295 2.42997 23.5308 2.43294 23.5313 2.43609C23.5319 2.43924 23.5319 2.4425 23.5312 2.44569C23.5305 2.44887 23.5292 2.4519 23.5274 2.4546L19.56 8.23671ZM4.50842 10.0514C4.58156 10.0529 4.65948 10.0519 4.73973 10.0509C5.28435 10.0439 5.93671 10.0356 5.93579 10.7925C5.93158 13.4234 5.93088 16.2321 5.93368 19.2188C5.93368 19.3578 5.9393 19.4995 5.95053 19.6441C5.95187 19.6649 5.9611 19.6845 5.97636 19.6988C5.99161 19.713 6.01174 19.721 6.03263 19.7209L8.86632 19.7304C8.92667 19.7304 8.95684 19.7006 8.95684 19.6409C8.95333 16.3728 8.95403 13.2128 8.95895 10.1609C8.96105 9.17565 8.35684 8.8125 7.42737 8.82197C6.46456 8.83179 5.49158 8.8325 4.50842 8.82408C4.4607 8.82408 4.43649 8.84758 4.43579 8.8946L4.43053 9.97144C4.43039 9.98181 4.43229 9.99211 4.43613 10.0017C4.43997 10.0114 4.44567 10.0202 4.4529 10.0276C4.46014 10.035 4.46876 10.0409 4.47829 10.045C4.48781 10.0491 4.49805 10.0513 4.50842 10.0514ZM12.58 20.1451L13.7632 18.3967L15.5621 15.7557L18.4842 20.0851C18.5101 20.1234 18.545 20.1547 18.5857 20.1763C18.6265 20.198 18.6718 20.2093 18.7179 20.2093L21.0789 20.2114C21.121 20.2114 21.1347 20.1918 21.12 20.1525C21.1095 20.1258 21.0965 20.1013 21.0811 20.0788C19.7168 18.0992 18.3681 16.15 17.0347 14.2314C17.0199 14.2097 17.0119 14.1841 17.0119 14.1578C17.0119 14.1315 17.0199 14.1058 17.0347 14.0841L20.9789 8.39355C20.9871 8.38208 20.9923 8.36882 20.9942 8.3549C20.9961 8.34097 20.9946 8.3268 20.9898 8.31358C20.9851 8.30035 20.9772 8.28847 20.9669 8.27894C20.9566 8.26941 20.9441 8.2625 20.9305 8.25882C20.8758 8.24338 20.8151 8.23777 20.7484 8.24198L24.3105 3.0504C24.3157 3.04293 24.3223 3.03658 24.3299 3.03172C24.3376 3.02686 24.3461 3.0236 24.3551 3.02212C24.364 3.02065 24.3732 3.021 24.382 3.02314C24.3908 3.02529 24.399 3.02919 24.4063 3.03461C30.8947 7.97987 32.3147 17.222 27.4758 23.8357C22.8326 30.182 14.16 31.8462 7.50105 27.6536C7.46175 27.629 7.45509 27.5978 7.48105 27.5599L12.58 20.1451ZM23.8621 18.5314C23.8705 18.095 23.8705 17.6406 23.8621 17.1683C23.8558 16.843 24.0074 16.6262 24.2347 16.4262C25.1709 15.6016 26.1263 14.7707 27.1011 13.9336C27.5358 13.5609 27.7905 13.0978 27.7947 12.5167C27.7982 12.0157 27.8018 11.4813 27.8053 10.9136L27.8065 10.8019C27.8134 10.2402 27.8184 9.83763 27.2916 9.41461C26.9154 9.11355 26.4909 8.95004 26.0179 8.92408C25.3919 8.88969 24.7779 8.88619 24.1758 8.91355C22.9516 8.9704 21.7853 10.2757 21.7737 11.4514C21.7674 12.0206 21.7684 12.5725 21.7768 13.1072C21.777 13.1135 21.7789 13.1196 21.7823 13.1249C21.7857 13.1302 21.7904 13.1345 21.796 13.1373C21.8016 13.1401 21.8079 13.1413 21.8142 13.1409C21.8204 13.1404 21.8264 13.1382 21.8316 13.1346C22.5003 12.6392 23.1537 12.1634 23.7916 11.7072C24.0073 11.5531 24.0076 11.3087 24.0079 11.0739C24.0079 11.0441 24.0079 11.0144 24.0084 10.9851C24.0168 10.4207 24.7258 10.4701 25.1047 10.4965L25.1084 10.4967C25.4123 10.5178 25.5677 10.6767 25.5747 10.9736L25.5774 11.0668C25.5907 11.5205 25.6091 12.1491 25.2758 12.4883C24.1382 13.6448 22.9765 14.8178 21.7905 16.0072C21.5982 16.1995 21.5028 16.4079 21.5042 16.6325C21.5098 17.6725 21.5095 18.7406 21.5032 19.8367C21.503 19.8503 21.5056 19.8639 21.5107 19.8765C21.5158 19.8891 21.5234 19.9006 21.533 19.9103C21.5426 19.92 21.554 19.9277 21.5666 19.933C21.5792 19.9382 21.5927 19.9409 21.6063 19.9409L27.9421 19.9399C27.9575 19.9399 27.9728 19.9368 27.9871 19.9309C28.0013 19.9249 28.0142 19.9162 28.0251 19.9053C28.036 19.8943 28.0445 19.8813 28.0504 19.867C28.0562 19.8527 28.0591 19.8374 28.0589 19.822L28.0505 18.7093C28.0498 18.6455 28.0179 18.6136 27.9547 18.6136H23.9421C23.8881 18.6136 23.8614 18.5862 23.8621 18.5314ZM59.6189 12.4146C59.6189 13.0727 59.0855 13.6062 58.4274 13.6062C57.7693 13.6062 57.2358 13.0727 57.2358 12.4146C57.2358 11.7565 57.7693 11.223 58.4274 11.223C59.0855 11.223 59.6189 11.7565 59.6189 12.4146ZM37.8021 14.8167C37.7881 14.9009 37.7572 14.9076 37.7095 14.8367C36.9453 13.7104 35.2505 13.9883 34.4011 14.8167C33.0232 16.1599 33.1432 19.3346 35.2105 19.9672C36.1312 20.2486 36.8979 20.0676 37.5105 19.4241C37.517 19.4175 37.5252 19.413 37.5341 19.411C37.5431 19.4091 37.5524 19.4097 37.561 19.413C37.5696 19.4162 37.577 19.4219 37.5825 19.4292C37.5879 19.4366 37.5911 19.4454 37.5916 19.4546C37.699 21.543 35.7937 21.5293 34.4137 20.8356C34.4066 20.8321 34.3988 20.8302 34.3909 20.83C34.383 20.8298 34.3751 20.8314 34.3678 20.8346C34.3606 20.8378 34.3541 20.8426 34.349 20.8486C34.3438 20.8546 34.34 20.8617 34.3379 20.8693L34.0211 22.0862C34.0106 22.126 34.015 22.1682 34.0334 22.205C34.0518 22.2418 34.083 22.2707 34.1211 22.2862C35.5253 22.8556 38.1137 22.9472 38.9579 21.3809C39.254 20.8314 39.4007 20.2002 39.3979 19.4872C39.3902 17.6023 39.4028 15.8609 39.4358 14.263C39.4358 14.2527 39.4317 14.2428 39.4244 14.2355C39.4171 14.2282 39.4072 14.2241 39.3968 14.2241L37.9232 14.2199C37.9035 14.2199 37.8847 14.2276 37.8707 14.2414C37.8567 14.2552 37.8487 14.2739 37.8484 14.2935C37.847 14.4676 37.8316 14.642 37.8021 14.8167ZM35.9495 18.5462C35.3274 18.1335 35.2684 17.1577 35.4326 16.4956C35.5874 15.8735 36.1242 15.3567 36.7842 15.5356C37.2046 15.6486 37.4516 15.9202 37.5253 16.3504C37.5856 16.6999 37.5937 17.1367 37.5495 17.6609C37.4768 18.522 36.7053 19.0472 35.9495 18.5462ZM44.1253 19.6683C44.1035 19.5932 44.0642 19.5826 44.0074 19.6367C43.6382 19.9847 43.226 20.1879 42.7705 20.2462C41.5621 20.4009 40.5158 19.7609 40.4811 18.4872C40.4326 16.664 42.3789 16.183 43.7968 16.2009C43.8923 16.2023 43.9344 16.1553 43.9232 16.0598C43.86 15.5177 43.3568 15.364 42.8853 15.364C42.333 15.3647 41.8084 15.4995 41.3116 15.7683C41.3014 15.7736 41.2902 15.7766 41.2787 15.7771C41.2673 15.7776 41.2559 15.7756 41.2454 15.7711C41.2349 15.7667 41.2256 15.76 41.2181 15.7515C41.2106 15.7429 41.2051 15.7329 41.2021 15.7219L40.9221 14.7209C40.8997 14.6381 40.9274 14.5791 41.0053 14.544C42.3989 13.924 45.0042 13.6588 45.62 15.583C45.7386 15.9549 45.7926 16.4588 45.7821 17.0946L45.782 17.1034C45.7652 18.0944 45.7477 19.127 45.8442 20.1072C45.8447 20.1115 45.8442 20.1158 45.8429 20.1199C45.8415 20.1239 45.8393 20.1277 45.8365 20.1309C45.8336 20.134 45.8301 20.1366 45.8261 20.1383C45.8222 20.14 45.818 20.1409 45.8137 20.1409L44.3168 20.143C44.2775 20.143 44.2397 20.1274 44.2119 20.0995C44.1841 20.0717 44.1684 20.0339 44.1684 19.9946C44.1684 19.8746 44.154 19.7658 44.1253 19.6683ZM43.9084 17.3546C43.2737 17.3398 42.2558 17.4872 42.2968 18.3114C42.3179 18.7177 42.5267 18.9328 42.9232 18.9567C43.3877 18.9848 43.7126 18.7942 43.8979 18.3851C43.9912 18.1781 44.0179 17.856 43.9779 17.4188C43.9744 17.3767 43.9512 17.3553 43.9084 17.3546ZM50.7937 14.1083C50.0077 14.0423 49.3681 14.316 48.8747 14.9293C48.8137 15.0044 48.7789 14.9939 48.7705 14.8978L48.7168 14.2967C48.715 14.277 48.706 14.2586 48.6917 14.2452C48.6773 14.2318 48.6585 14.2243 48.6389 14.2241L47.22 14.2209C47.2108 14.2209 47.2019 14.2245 47.1954 14.2308C47.1889 14.2371 47.1853 14.2457 47.1853 14.2546L47.2137 20.0314C47.214 20.0597 47.2253 20.0868 47.2452 20.1067C47.2651 20.1266 47.292 20.1378 47.32 20.1378L48.9442 20.143C48.9511 20.143 48.9579 20.1417 48.9642 20.1391C48.9705 20.1365 48.9762 20.1327 48.9811 20.1279C48.9859 20.123 48.9896 20.1174 48.9922 20.1111C48.9947 20.1049 48.9959 20.0982 48.9958 20.0914C48.9916 18.949 48.9926 17.7992 48.9989 16.642C49.0021 16.0578 49.4463 15.4788 50.0874 15.6062C50.6 15.7083 50.7474 16.2988 50.7495 16.7451C50.7551 17.8469 50.7558 18.9409 50.7516 20.0272C50.7516 20.1023 50.7891 20.1399 50.8642 20.1399L52.4958 20.142C52.5083 20.142 52.5204 20.1371 52.5293 20.1284C52.5382 20.1197 52.5432 20.1079 52.5432 20.0957C52.5368 18.9757 52.5386 17.8307 52.5484 16.6609C52.5526 16.183 52.7298 15.8564 53.08 15.6809C53.4021 15.5188 53.6954 15.55 53.96 15.7746C54.2 15.9778 54.2989 16.4209 54.3021 16.7199C54.3126 17.8378 54.3147 18.95 54.3084 20.0567C54.3084 20.0786 54.317 20.0996 54.3324 20.1151C54.3478 20.1307 54.3687 20.1396 54.3905 20.1399L55.981 20.143C56.0575 20.1437 56.0958 20.1058 56.0958 20.0293C56.0972 18.9788 56.0993 17.876 56.1021 16.7209C56.1042 15.5767 55.7663 14.3957 54.5389 14.1399C53.6737 13.9588 52.8284 14.3041 52.2968 15.0251C52.2904 15.0339 52.2819 15.0409 52.2721 15.0455C52.2623 15.0501 52.2514 15.0521 52.2406 15.0514C52.2298 15.0506 52.2193 15.0472 52.2102 15.0413C52.201 15.0354 52.1936 15.0273 52.1884 15.0178C51.8916 14.4641 51.4267 14.1609 50.7937 14.1083ZM62.4684 14.9524C62.4693 14.9607 62.4726 14.9686 62.4779 14.9751C62.4832 14.9815 62.4904 14.9862 62.4984 14.9886C62.5064 14.9909 62.5149 14.9909 62.5229 14.9884C62.5309 14.9859 62.5379 14.9811 62.5432 14.9745C63.0709 14.2938 63.7853 14.0107 64.6863 14.1251C65.7832 14.264 66.3737 15.2409 66.4074 16.2861C66.4404 17.2868 66.4446 18.5412 66.42 20.0493C66.4194 20.0743 66.4091 20.0981 66.3912 20.1157C66.3733 20.1332 66.3493 20.143 66.3242 20.143L64.6789 20.1398C64.6543 20.1395 64.6307 20.1295 64.6134 20.112C64.596 20.0945 64.5863 20.0708 64.5863 20.0461C64.5891 18.9107 64.5881 17.8103 64.5832 16.7451C64.5768 15.0998 62.6632 15.2914 62.6695 16.8103C62.6744 17.9268 62.6747 19.024 62.6705 20.1019C62.6705 20.1125 62.6663 20.1227 62.6588 20.1302C62.6513 20.1377 62.6411 20.1419 62.6305 20.1419H60.9526C60.9238 20.1419 60.8961 20.1304 60.8756 20.1099C60.8551 20.0894 60.8434 20.0616 60.8432 20.0324L60.8211 14.2545C60.8211 14.2502 60.8219 14.2458 60.8236 14.2418C60.8245 14.2397 60.8257 14.2376 60.827 14.2357C60.8282 14.2341 60.8295 14.2325 60.831 14.2311C60.8341 14.228 60.8378 14.2257 60.8419 14.2241C60.846 14.2225 60.8504 14.2218 60.8547 14.2219L62.3011 14.2251C62.3614 14.2251 62.3947 14.2552 62.4011 14.3156L62.4684 14.9524ZM71.9074 14.3009L71.8737 14.8209C71.8688 14.889 71.8424 14.8988 71.7947 14.8504C71.7492 14.8037 71.7076 14.7551 71.6663 14.7068C71.5913 14.6189 71.5172 14.5322 71.4221 14.4609C70.5063 13.7841 69.1474 14.0956 68.3947 14.8851C66.8779 16.4735 67.3726 20.0535 70.0284 20.0914C70.6144 20.0992 71.1095 19.8953 71.5137 19.4799C71.626 19.3648 71.6765 19.3872 71.6653 19.5472C71.6168 20.262 71.4821 20.9546 70.681 21.1746C69.9632 21.3714 69.1253 21.1683 68.4726 20.8409C68.4228 20.8156 68.3923 20.8304 68.381 20.8851C68.2996 21.2753 68.1986 21.6756 68.0779 22.0862C68.0666 22.1242 68.0698 22.1651 68.0869 22.2009C68.104 22.2367 68.1338 22.2648 68.1705 22.2799C69.3895 22.7809 71.1053 22.8609 72.2589 22.1662C72.7537 21.8686 73.0905 21.4041 73.2695 20.7725C73.3979 20.3199 73.4614 19.9395 73.46 19.6314C73.4509 17.8006 73.4621 16.0195 73.4937 14.2883C73.4944 14.242 73.4716 14.2188 73.4253 14.2188L71.9884 14.2241C71.9678 14.224 71.9479 14.232 71.9329 14.2463C71.9178 14.2605 71.9087 14.2801 71.9074 14.3009ZM69.9979 18.5378C69.3095 18.0567 69.3137 16.9114 69.5874 16.2272C70.02 15.143 71.5326 15.3146 71.6116 16.503C71.6368 16.8855 71.6365 17.2679 71.6105 17.6504C71.5516 18.5188 70.7474 19.063 69.9979 18.5378ZM59.3053 14.2219H57.621C57.5769 14.2219 57.541 14.2577 57.541 14.3019V20.0598C57.541 20.104 57.5769 20.1398 57.621 20.1398H59.3053C59.3494 20.1398 59.3853 20.104 59.3853 20.0598V14.3019C59.3853 14.2577 59.3494 14.2219 59.3053 14.2219Z" fill="white"/>
</g>
<defs>
<clipPath id="clip0_4659_8179">
<rect width="73.0526" height="30" fill="white" transform="translate(0.473694 0.000976562)"/>
</clipPath>
</defs>
</svg>

<svg width="74" height="30" fill="none" xmlns="http://www.w3.org/2000/svg"><g clip-path="url(#a)"><path fill-rule="evenodd" clip-rule="evenodd" d="m19.56 8.237-.959.012a.148.148 0 0 0-.122.068l-2.87 4.3a.06.06 0 0 1-.08.02.06.06 0 0 1-.022-.02l-2.871-4.306a.143.143 0 0 0-.121-.063c-.733.002-1.498.001-2.294-.003-.038 0-.068.018-.09.055a.078.078 0 0 0 .002.086l3.943 5.692c.015.023.024.05.024.078a.134.134 0 0 1-.024.076l-4.083 5.894a.053.053 0 0 0 .045.084l1.303-.01-4.67 6.797c-.027.04-.06.046-.1.017A14.983 14.983 0 0 1 .699 12.947C1.789 5.014 8.9-.643 16.876.111a14.695 14.695 0 0 1 6.652 2.316.024.024 0 0 1 .003.018.026.026 0 0 1-.004.01L19.56 8.237ZM4.508 10.05c.074.002.151 0 .232 0 .544-.007 1.197-.015 1.196.742-.004 2.63-.005 5.44-.002 8.426 0 .139.005.28.017.425a.082.082 0 0 0 .082.077l2.833.01c.06 0 .09-.03.09-.09-.003-3.268-.002-6.428.003-9.48.002-.985-.602-1.348-1.532-1.339-.962.01-1.935.01-2.919.002-.047 0-.072.024-.072.07L4.43 9.972a.079.079 0 0 0 .077.08Zm8.072 10.094 1.183-1.748 1.8-2.641 2.921 4.33a.282.282 0 0 0 .234.123l2.36.002c.043 0 .057-.02.042-.058a.369.369 0 0 0-.039-.074c-1.364-1.98-2.713-3.929-4.046-5.848a.13.13 0 0 1 0-.147l3.944-5.69a.086.086 0 0 0 .01-.08.087.087 0 0 0-.059-.055.542.542 0 0 0-.182-.017l3.563-5.192a.069.069 0 0 1 .044-.028.068.068 0 0 1 .051.013c6.489 4.945 7.909 14.187 3.07 20.8A14.86 14.86 0 0 1 7.5 27.655c-.04-.025-.046-.056-.02-.094l5.099-7.415Zm11.282-1.614c.009-.436.009-.89 0-1.363-.006-.325.145-.542.373-.742.936-.824 1.891-1.655 2.866-2.492.435-.373.69-.836.694-1.417l.01-1.603.002-.112c.006-.562.011-.964-.515-1.387a2.185 2.185 0 0 0-1.274-.49 18.369 18.369 0 0 0-1.842-.011c-1.224.056-2.39 1.362-2.402 2.537-.007.57-.006 1.121.003 1.656a.035.035 0 0 0 .055.028c.668-.496 1.322-.972 1.96-1.428.215-.154.216-.398.216-.633v-.089c.009-.564.718-.515 1.097-.489h.003c.304.022.46.18.467.478l.002.093c.014.454.032 1.082-.301 1.421a727.68 727.68 0 0 1-3.485 3.52c-.193.192-.288.4-.287.625.006 1.04.005 2.108 0 3.204a.102.102 0 0 0 .102.104l6.336-.001a.118.118 0 0 0 .108-.073.116.116 0 0 0 .009-.045l-.009-1.113c0-.064-.032-.095-.095-.095h-4.013c-.054 0-.08-.028-.08-.083Zm35.757-6.116a1.192 1.192 0 1 1-2.383 0 1.192 1.192 0 0 1 2.383 0Zm-21.817 2.402c-.014.084-.045.09-.093.02-.764-1.127-2.459-.849-3.308-.02-1.378 1.343-1.258 4.518.81 5.15.92.282 1.687.1 2.3-.543a.048.048 0 0 1 .05-.011.047.047 0 0 1 .03.042c.108 2.088-1.797 2.074-3.177 1.38a.055.055 0 0 0-.046 0 .053.053 0 0 0-.03.034l-.317 1.217a.17.17 0 0 0 .1.2c1.404.57 3.993.661 4.837-.905.296-.55.443-1.18.44-1.894a212.31 212.31 0 0 1 .038-5.224.039.039 0 0 0-.04-.039l-1.473-.004a.075.075 0 0 0-.075.073 3.297 3.297 0 0 1-.046.524Zm-1.852 3.73c-.623-.413-.682-1.39-.517-2.051.154-.622.691-1.14 1.351-.96.42.113.668.384.741.814.06.35.069.787.025 1.31-.073.862-.845 1.387-1.6.886Zm8.175 1.121c-.022-.075-.06-.085-.118-.031-.369.348-.781.55-1.236.61-1.209.154-2.255-.486-2.29-1.76-.048-1.823 1.898-2.304 3.316-2.286.095.001.137-.046.126-.141-.063-.542-.566-.696-1.038-.696-.552 0-1.077.135-1.573.404a.079.079 0 0 1-.067.003.075.075 0 0 1-.043-.05l-.28-1c-.022-.083.005-.142.083-.177 1.394-.62 4-.885 4.615 1.039.119.372.173.876.162 1.512v.008c-.017.991-.034 2.024.062 3.004a.03.03 0 0 1-.03.034l-1.497.002a.148.148 0 0 1-.149-.148c0-.12-.014-.23-.043-.327Zm-.217-2.313c-.634-.015-1.652.132-1.611.956.02.407.23.622.626.646.465.028.79-.163.975-.572.093-.207.12-.529.08-.966-.004-.042-.027-.064-.07-.064Zm6.886-3.247c-.786-.066-1.426.208-1.92.821-.06.075-.095.065-.104-.031l-.053-.601a.079.079 0 0 0-.078-.073l-1.419-.003a.035.035 0 0 0-.025.01.033.033 0 0 0-.01.024l.029 5.776a.106.106 0 0 0 .106.106l1.624.006a.052.052 0 0 0 .037-.015.05.05 0 0 0 .015-.037c-.004-1.142-.003-2.292.003-3.449.003-.584.447-1.163 1.088-1.036.513.102.66.693.662 1.14.006 1.1.007 2.195.003 3.281 0 .075.037.113.112.113l1.632.002a.048.048 0 0 0 .033-.014.046.046 0 0 0 .014-.032c-.006-1.12-.004-2.265.005-3.435.005-.478.182-.805.532-.98.322-.162.615-.131.88.094.24.203.339.646.342.945.01 1.118.013 2.23.006 3.337a.083.083 0 0 0 .083.083l1.59.003c.076 0 .115-.037.115-.114l.006-3.308c.002-1.144-.336-2.325-1.563-2.581-.865-.181-1.71.164-2.242.885a.064.064 0 0 1-.109-.007c-.296-.554-.761-.857-1.394-.91Zm11.674.844c.001.009.005.017.01.023a.043.043 0 0 0 .045.013.042.042 0 0 0 .02-.013c.528-.681 1.242-.964 2.143-.85 1.097.139 1.688 1.116 1.721 2.161.033 1 .038 2.255.013 3.763a.096.096 0 0 1-.096.094l-1.645-.003a.094.094 0 0 1-.093-.094c.003-1.135.002-2.236-.003-3.3-.006-1.646-1.92-1.455-1.913.064.004 1.117.005 2.214 0 3.292a.04.04 0 0 1-.04.04h-1.677a.11.11 0 0 1-.11-.11l-.022-5.777a.033.033 0 0 1 .01-.024.033.033 0 0 1 .024-.01l1.446.004c.06 0 .094.03.1.09l.067.637Zm9.44-.651-.034.52c-.005.068-.032.078-.08.03a2.948 2.948 0 0 1-.128-.144 1.547 1.547 0 0 0-.244-.246c-.916-.677-2.275-.365-3.027.424-1.517 1.589-1.022 5.168 1.633 5.206a1.954 1.954 0 0 0 1.486-.611c.112-.115.163-.093.151.067-.048.715-.183 1.408-.984 1.628-.718.196-1.556-.007-2.208-.334-.05-.025-.08-.01-.092.044-.081.39-.182.79-.303 1.201a.16.16 0 0 0 .093.194c1.218.5 2.934.58 4.088-.114.495-.297.832-.762 1.01-1.393.129-.453.192-.834.191-1.142-.01-1.83.002-3.611.034-5.343 0-.046-.022-.07-.069-.07l-1.437.006a.082.082 0 0 0-.081.077Zm-1.91 4.237c-.689-.481-.684-1.627-.41-2.31.432-1.085 1.945-.913 2.024.275a8.58 8.58 0 0 1-.001 1.147c-.06.869-.864 1.413-1.613.888Zm-10.693-4.316h-1.684a.08.08 0 0 0-.08.08v5.758c0 .044.036.08.08.08h1.684a.08.08 0 0 0 .08-.08v-5.758a.08.08 0 0 0-.08-.08Z" fill="#fff"/></g><defs><clipPath id="a"><path fill="#fff" transform="translate(.474 .001)" d="M0 0h73.053v30H0z"/></clipPath></defs></svg>
